// コッホ曲線
startshape koch(5)

third = 1 / 3 // 正三角形の一辺の長さ
height = third * sin(60)  // 正三角形の高さ
deltax = third / 4
deltay = height / 2

shape koch(natural level) {
  if (level <= 0) {
    line []
  } else {
    koch(level -- 1) [x -third s third ]
    koch(level -- 1) [x -deltax y deltay  rotate  60 s third ]
    koch(level -- 1) [x  deltax y deltay  rotate -60 s third ]
    koch(level -- 1) [x  third s third ]
  }
}

path line {
  MOVETO(-0.5, 0)
  LINETO( 0.5, 0)
  STROKE()[]
}
